src/home/img/support.svg

<svg height="80" viewBox="0 0 80 80" width="80" xmlns="http://www.w3.org/2000/svg" xmlns:xlink="http://www.w3.org/1999/xlink"><linearGradient id="a" x1="50%" x2="50%" y1="0%" y2="100%"><stop offset="0" stop-color="#3f6abc"/><stop offset="1" stop-color="#1851be"/></linearGradient><filter id="b" height="110.6%" width="110.6%" x="-5.3%" y="-5.3%"><feGaussianBlur in="SourceGraphic" stdDeviation="1.05"/></filter><radialGradient id="c" cx="50%" cy="17.854%" gradientTransform="matrix(0 .8772 -1 0 .679 -.26)" r="114%"><stop offset="0" stop-color="#fff"/><stop offset="1" stop-color="#aec3eb"/></radialGradient><filter id="d" height="106.8%" width="107.8%" x="-3.9%" y="-3.4%"><feGaussianBlur in="SourceGraphic" stdDeviation=".65"/></filter><mask id="e" fill="#fff"><path d="m.5 13.84c0-7.367 5.973-13.34 13.34-13.34h48.32c7.367 0 13.34 5.973 13.34 13.34v48.32c0 7.367-5.973 13.34-13.34 13.34h-48.32c-7.367 0-13.34-5.973-13.34-13.34z" fill="#fff" fill-rule="evenodd"/></mask><g fill="none" fill-rule="evenodd" transform="translate(2 2)"><path d="m.5 13.84c0-7.367 5.973-13.34 13.34-13.34h48.32c7.367 0 13.34 5.973 13.34 13.34v48.32c0 7.367-5.973 13.34-13.34 13.34h-48.32c-7.367 0-13.34-5.973-13.34-13.34z" mask="url(#e)"/><path d="m.5 13.84c0-7.367 5.973-13.34 13.34-13.34h48.32c7.367 0 13.34 5.973 13.34 13.34v48.32c0 7.367-5.973 13.34-13.34 13.34h-48.32c-7.367 0-13.34-5.973-13.34-13.34z"/><path d="m.5 13.84c0-7.367 5.973-13.34 13.34-13.34h48.32c7.367 0 13.34 5.973 13.34 13.34v48.32c0 7.367-5.973 13.34-13.34 13.34h-48.32c-7.367 0-13.34-5.973-13.34-13.34z"/><g fill-rule="nonzero"><path d="m.5 13.84c0-7.367 5.973-13.34 13.34-13.34h48.32c7.367 0 13.34 5.973 13.34 13.34v48.32c0 7.367-5.973 13.34-13.34 13.34h-48.32c-7.367 0-13.34-5.973-13.34-13.34z" fill="url(#a)" filter="url(#b)" stroke="#fff" stroke-opacity=".01" stroke-width="1.68"/><path d="m.5 13.84c0-7.367 5.973-13.34 13.34-13.34h48.32c7.367 0 13.34 5.973 13.34 13.34v48.32c0 7.367-5.973 13.34-13.34 13.34h-48.32c-7.367 0-13.34-5.973-13.34-13.34z" fill="url(#a)" stroke="#fff" stroke-opacity=".01" stroke-width="1.68"/><g fill="url(#c)" transform="translate(13 9)"><path d="m35.7142857 39.1875h-2.578125c-5.1628384 2.3749296-11.109483 2.3749296-16.2723214 0h-2.578125c-7.88978215 0-14.2857143 6.3799423-14.2857143 14.25 0 1.9675144 1.59898304 3.5625 3.57142857 3.5625h42.85714283c1.9724456 0 3.5714286-1.5949856 3.5714286-3.5625 0-7.8700577-6.3959321-14.25-14.2857143-14.25zm-30.35714284-14.25c.98622276 0 1.78571428-.7974928 1.78571428-1.78125v-1.78125c0-9.8213672 8.01116076-17.8125 17.85714286-17.8125s17.8571429 7.9911328 17.8571429 17.8125v1.78125c-.0055356 4.9164971-3.9997524 8.9007283-8.9285715 8.90625h-3.5714285c0-1.9675144-1.5989831-3.5625-3.5714286-3.5625h-3.5714286c-1.9724455 0-3.5714286 1.5949856-3.5714286 3.5625s1.5989831 3.5625 3.5714286 3.5625h10.7142857c6.8999904-.0085873 12.4913912-5.5860097 12.5-12.46875v-1.78125c0-11.78630859-9.6127232-21.375-21.4285714-21.375s-21.42857143 9.58869141-21.42857143 21.375v1.78125c0 .9837572.79949152 1.78125 1.78571429 1.78125zm17.85714284 0h3.5714286c2.551274.0006214 4.9085148 1.3585555 6.1841518 3.5625h.9587053c2.9573934-.0030681 5.3540671-2.3937502 5.3571429-5.34375v-1.78125c0-7.8700577-6.3959322-14.25-14.2857143-14.25s-14.2857143 6.3799423-14.2857143 14.25c0 4.4998828 2.1316964 8.4609375 5.3962054 11.0738086-.0066965-.1302539-.0390625-.2538281-.0390625-.3863086.0043057-3.9332484 3.1997509-7.1207051 7.1428571-7.125z" filter="url(#d)"/><path d="m35.7142857 39.1875h-2.578125c-5.1628384 2.3749296-11.109483 2.3749296-16.2723214 0h-2.578125c-7.88978215 0-14.2857143 6.3799423-14.2857143 14.25 0 1.9675144 1.59898304 3.5625 3.57142857 3.5625h42.85714283c1.9724456 0 3.5714286-1.5949856 3.5714286-3.5625 0-7.8700577-6.3959321-14.25-14.2857143-14.25zm-30.35714284-14.25c.98622276 0 1.78571428-.7974928 1.78571428-1.78125v-1.78125c0-9.8213672 8.01116076-17.8125 17.85714286-17.8125s17.8571429 7.9911328 17.8571429 17.8125v1.78125c-.0055356 4.9164971-3.9997524 8.9007283-8.9285715 8.90625h-3.5714285c0-1.9675144-1.5989831-3.5625-3.5714286-3.5625h-3.5714286c-1.9724455 0-3.5714286 1.5949856-3.5714286 3.5625s1.5989831 3.5625 3.5714286 3.5625h10.7142857c6.8999904-.0085873 12.4913912-5.5860097 12.5-12.46875v-1.78125c0-11.78630859-9.6127232-21.375-21.4285714-21.375s-21.42857143 9.58869141-21.42857143 21.375v1.78125c0 .9837572.79949152 1.78125 1.78571429 1.78125zm17.85714284 0h3.5714286c2.551274.0006214 4.9085148 1.3585555 6.1841518 3.5625h.9587053c2.9573934-.0030681 5.3540671-2.3937502 5.3571429-5.34375v-1.78125c0-7.8700577-6.3959322-14.25-14.2857143-14.25s-14.2857143 6.3799423-14.2857143 14.25c0 4.4998828 2.1316964 8.4609375 5.3962054 11.0738086-.0066965-.1302539-.0390625-.2538281-.0390625-.3863086.0043057-3.9332484 3.1997509-7.1207051 7.1428571-7.125z"/></g></g></g></svg>

<svg xmlns="http://www.w3.org/2000/svg" xmlns:xlink="http://www.w3.org/1999/xlink" width="80" height="80" viewBox="0 0 80 80">
  <defs>
    <path id="support-a" d="M0.5,13.84 C0.5,6.473 6.473,0.5 13.84,0.5 L62.16,0.5 C69.527,0.5 75.5,6.473 75.5,13.84 L75.5,62.16 C75.5,69.527 69.527,75.5 62.16,75.5 L13.84,75.5 C6.473,75.5 0.5,69.527 0.5,62.16 L0.5,13.84 Z"/>
    <linearGradient id="support-c" x1="50%" x2="50%" y1="0%" y2="100%">
      <stop offset="0%" stop-color="#3F6ABC"/>
      <stop offset="100%" stop-color="#1851BE"/>
    </linearGradient>
    <filter id="support-d" width="110.6%" height="110.6%" x="-5.3%" y="-5.3%" filterUnits="objectBoundingBox">
      <feGaussianBlur in="SourceGraphic" stdDeviation="1.05"/>
    </filter>
    <radialGradient id="support-e" cx="50%" cy="17.854%" r="114%" fx="50%" fy="17.854%" gradientTransform="matrix(0 .8772 -1 0 .679 -.26)">
      <stop offset="0%" stop-color="#FFF"/>
      <stop offset="100%" stop-color="#AEC3EB"/>
    </radialGradient>
    <filter id="support-f" width="107.8%" height="106.8%" x="-3.9%" y="-3.4%" filterUnits="objectBoundingBox">
      <feGaussianBlur in="SourceGraphic" stdDeviation=".65"/>
    </filter>
  </defs>
  <g fill="none" fill-rule="evenodd" transform="translate(2 2)">
    <mask id="support-b" fill="#fff">
      <use xlink:href="#support-a"/>
    </mask>
    <path d="M0.5,13.84 C0.5,6.473 6.473,0.5 13.84,0.5 L62.16,0.5 C69.527,0.5 75.5,6.473 75.5,13.84 L75.5,62.16 C75.5,69.527 69.527,75.5 62.16,75.5 L13.84,75.5 C6.473,75.5 0.5,69.527 0.5,62.16 L0.5,13.84 Z" mask="url(#support-b)"/>
    <path d="M0.5,13.84 C0.5,6.473 6.473,0.5 13.84,0.5 L62.16,0.5 C69.527,0.5 75.5,6.473 75.5,13.84 L75.5,62.16 C75.5,69.527 69.527,75.5 62.16,75.5 L13.84,75.5 C6.473,75.5 0.5,69.527 0.5,62.16 L0.5,13.84 Z"/>
    <path d="M0.5,13.84 C0.5,6.473 6.473,0.5 13.84,0.5 L62.16,0.5 C69.527,0.5 75.5,6.473 75.5,13.84 L75.5,62.16 C75.5,69.527 69.527,75.5 62.16,75.5 L13.84,75.5 C6.473,75.5 0.5,69.527 0.5,62.16 L0.5,13.84 Z"/>
    <path fill="url(#support-c)" fill-rule="nonzero" stroke="#FFF" stroke-opacity=".01" stroke-width="1.68" d="M0.5,13.84 C0.5,6.473 6.473,0.5 13.84,0.5 L62.16,0.5 C69.527,0.5 75.5,6.473 75.5,13.84 L75.5,62.16 C75.5,69.527 69.527,75.5 62.16,75.5 L13.84,75.5 C6.473,75.5 0.5,69.527 0.5,62.16 L0.5,13.84 Z" filter="url(#support-d)"/>
    <path fill="url(#support-c)" fill-rule="nonzero" stroke="#FFF" stroke-opacity=".01" stroke-width="1.68" d="M0.5,13.84 C0.5,6.473 6.473,0.5 13.84,0.5 L62.16,0.5 C69.527,0.5 75.5,6.473 75.5,13.84 L75.5,62.16 C75.5,69.527 69.527,75.5 62.16,75.5 L13.84,75.5 C6.473,75.5 0.5,69.527 0.5,62.16 L0.5,13.84 Z"/>
    <g fill="url(#support-e)" fill-rule="nonzero" transform="translate(13 9)">
      <path d="M35.7142857,39.1875 L33.1361607,39.1875 C27.9733223,41.5624296 22.0266777,41.5624296 16.8638393,39.1875 L14.2857143,39.1875 C6.39593215,39.1875 0,45.5674423 0,53.4375 C0,55.4050144 1.59898304,57 3.57142857,57 L46.4285714,57 C48.401017,57 50,55.4050144 50,53.4375 C50,45.5674423 43.6040679,39.1875 35.7142857,39.1875 Z M5.35714286,24.9375 C6.34336562,24.9375 7.14285714,24.1400072 7.14285714,23.15625 L7.14285714,21.375 C7.14285714,11.5536328 15.1540179,3.5625 25,3.5625 C34.8459821,3.5625 42.8571429,11.5536328 42.8571429,21.375 L42.8571429,23.15625 C42.8516073,28.0727471 38.8573905,32.0569783 33.9285714,32.0625 L30.3571429,32.0625 C30.3571429,30.0949856 28.7581598,28.5 26.7857143,28.5 L23.2142857,28.5 C21.2418402,28.5 19.6428571,30.0949856 19.6428571,32.0625 C19.6428571,34.0300144 21.2418402,35.625 23.2142857,35.625 L33.9285714,35.625 C40.8285618,35.6164127 46.4199626,30.0389903 46.4285714,23.15625 L46.4285714,21.375 C46.4285714,9.58869141 36.8158482,0 25,0 C13.1841518,0 3.57142857,9.58869141 3.57142857,21.375 L3.57142857,23.15625 C3.57142857,24.1400072 4.37092009,24.9375 5.35714286,24.9375 Z M23.2142857,24.9375 L26.7857143,24.9375 C29.3369883,24.9381214 31.6942291,26.2960555 32.9698661,28.5 L33.9285714,28.5 C36.8859648,28.4969319 39.2826385,26.1062498 39.2857143,23.15625 L39.2857143,21.375 C39.2857143,13.5049423 32.8897821,7.125 25,7.125 C17.1102179,7.125 10.7142857,13.5049423 10.7142857,21.375 C10.7142857,25.8748828 12.8459821,29.8359375 16.1104911,32.4488086 C16.1037946,32.3185547 16.0714286,32.1949805 16.0714286,32.0625 C16.0757343,28.1292516 19.2711795,24.9417949 23.2142857,24.9375 L23.2142857,24.9375 Z" filter="url(#support-f)"/>
      <path d="M35.7142857,39.1875 L33.1361607,39.1875 C27.9733223,41.5624296 22.0266777,41.5624296 16.8638393,39.1875 L14.2857143,39.1875 C6.39593215,39.1875 0,45.5674423 0,53.4375 C0,55.4050144 1.59898304,57 3.57142857,57 L46.4285714,57 C48.401017,57 50,55.4050144 50,53.4375 C50,45.5674423 43.6040679,39.1875 35.7142857,39.1875 Z M5.35714286,24.9375 C6.34336562,24.9375 7.14285714,24.1400072 7.14285714,23.15625 L7.14285714,21.375 C7.14285714,11.5536328 15.1540179,3.5625 25,3.5625 C34.8459821,3.5625 42.8571429,11.5536328 42.8571429,21.375 L42.8571429,23.15625 C42.8516073,28.0727471 38.8573905,32.0569783 33.9285714,32.0625 L30.3571429,32.0625 C30.3571429,30.0949856 28.7581598,28.5 26.7857143,28.5 L23.2142857,28.5 C21.2418402,28.5 19.6428571,30.0949856 19.6428571,32.0625 C19.6428571,34.0300144 21.2418402,35.625 23.2142857,35.625 L33.9285714,35.625 C40.8285618,35.6164127 46.4199626,30.0389903 46.4285714,23.15625 L46.4285714,21.375 C46.4285714,9.58869141 36.8158482,0 25,0 C13.1841518,0 3.57142857,9.58869141 3.57142857,21.375 L3.57142857,23.15625 C3.57142857,24.1400072 4.37092009,24.9375 5.35714286,24.9375 Z M23.2142857,24.9375 L26.7857143,24.9375 C29.3369883,24.9381214 31.6942291,26.2960555 32.9698661,28.5 L33.9285714,28.5 C36.8859648,28.4969319 39.2826385,26.1062498 39.2857143,23.15625 L39.2857143,21.375 C39.2857143,13.5049423 32.8897821,7.125 25,7.125 C17.1102179,7.125 10.7142857,13.5049423 10.7142857,21.375 C10.7142857,25.8748828 12.8459821,29.8359375 16.1104911,32.4488086 C16.1037946,32.3185547 16.0714286,32.1949805 16.0714286,32.0625 C16.0757343,28.1292516 19.2711795,24.9417949 23.2142857,24.9375 L23.2142857,24.9375 Z"/>
    </g>
  </g>
</svg>
